X:59
% %NRChange 2008-02-24
T:Polska till Stockholms Spelmanslaget (Canoe Trip)
C:(eller m\"ojligen Kanotresan?)
O:USA
M:3/4
L:1/8
R:Polska
Q:1/8=200
K:D
%P:A
"(A)"AB/c/ "D"dc BA | GF "G"EF GE | E>F "A"GE/G/ FD/F/ |\
[1 EA A4 :|[2 "G"EC "D"D4 :|
%P:B
"D"vf2 df af | "A"e/f/e/d/ ce A2 | "G"B2 GB dB |[1 "A"A/B/A/^G/ uA4 :|[2 "A"(Avc) ea ua2 :|

